!!!!SEGMENT: pl-wumfc--n30966_brzezinska-filipina--contredanse-no-2.krn
!!!cenid: 18xx:4181
!!!COM: Brzezińska, Filipina
!!!COM-rismID: pe30085801
!!!CDT: 1800/01/01-1886/11/11
!!!CNT: Polish
!!!OTL: Contredanses No 2
!!!PDT:
!!!AGN:
!!!SMS-siglum: PL-Wumfc
!!!SMS-shelfmark: N30966
!!!SMS-variant:
!!!SMS-altvar:
!!!SMS-shelfwork: W
!!!NIFC-rismSourceID: 1001161929
!!!NIFC-rismChildID: 1001161929
!!!NIFC-islandoraID: pl-wumfc:3410
!!!URL-pdf-islandora: https://repozytorium.nifc.pl/islandora/object/pl-wumfc%3A3410/datastream/PDF/view
!!!URL-scan: https://polish.musicsources.pl/pl/lokalizacje/galeria/druki-muzyczne/12211/1 @EN{Scan on Polish Music Sources Website} @PL{Skany w portalu Dziedzictwo Muzyki Polskiej w otwartym dostępie}
!!!IIIF:
!!!ONB-nifc:
!!!AIN: 2 piano
!!!key: B-
**kern	**kern	**dynam
*part2	*part1	*part1
*staff2	*staff1	*
*I"[PIANO]	*I"[PIANO]	*
*I'[pf]	*I'[pf]	*
*ICklav	*ICklav	*
*Ipiano	*Ipiano	*
*clefF4	*clefG2	*
*k[b-e-]	*k[b-e-]	*
*B-:	*B-:	*
*M2/4	*M2/4	*
=1	=1	=1
8BBB-/ 8BB-	8f\L	.
8F\L	8dd\	.
8B-\ 8d	8a\	.
8F\J	8b-\J	.
=2	=2	=2
8BB-/	4.f/	.
8F\L	.	.
8B-\ 8d	.	.
8F\J	16b-\LL	.
.	16dd\JJ	.
=3	=3	=3
!LO:TX:t=P:problem:mixed beam	!	!
8FF/L	8ff'\L	.
8F\J 8A 8e-	16ee-\L	.
.	16cc\JJ	.
8BB-\L	8ee-'\L	.
8F\J 8B- 8d	16dd\L	.
.	16b-\JJ	.
=4	=4	=4
.	(8qdd/	.
8FF/ 8F	16cc\LL)	.
!	!LO:TX:t=P:problem: kasownik dopisany ołówkiem	!
.	16b-\	.
8F\L	16cc\	.
.	16dd\JJ	.
8A\ 8e-	8cc'\L	.
8F\J	8ff'\J	.
=5	=5	=5
8BB-/	8f\L	.
8F\L	8dd\	.
8B-\ 8d	8a\	.
8F\J	8b-\J	.
!!LO:LB:g=original	!	!
=6	=6	=6
4EE-/ 4E-	8g/	.
.	(16bb-^\LL	.
.	16ff#X\JJ	.
4E-^\ 4G 4c	16aa\LL	.
.	16gg\	.
.	16ee-\	.
.	16cc\JJ)	.
=7	=7	=7
!LO:TX:t=P:problem:mixed beam	!	!
8FF/L	(16b-\LL	.
.	16a\	.
8F\J 8c 8e-	16g\	.
.	16f\JJ)	.
!LO:TX:t=P:problem:mixed beam	!	!
8FF/L	(16en\LL	.
.	16f\	.
8F\J 8c 8e-	16dd^\	.
.	16cc\JJ)	.
=8	=8	=8
8B-\L 8d	8b-'\L	.
8BB-\J 8F 8B-	8f'\J 8dd	.
!	!LO:TX:b:i:t=Fine.	!
4BB-\ 4F 4B-	4d/ 4b-	.
==9;	==9;	==9;
8FF/ 8F	8ee-'\L	.
8F\L	16bn\L	.
.	16cc\JJ	.
8c\ 8e-	8ee-'\L	.
8F\J	16b\L	.
.	16cc\JJ	.
=10	=10	=10
2c\ 2e-	8ee-'\L	.
.	16bn\L	.
.	16cc\JJ	.
.	16dd^\LL	.
.	16cc\	.
.	16a\	.
.	16f\JJ	.
!!LO:LB:g=original	!	!
=11	=11	=11
8BB-\L 8B-	8dd'\L	.
8F\	16a\L	.
.	16b-\JJ	.
8B-\ 8d	8dd'\L	.
8F\J	16a\L	.
.	16b-\JJ	.
=12	=12	=12
2B-\ 2d	8dd'\L	.
.	16a\L	.
.	16b-\JJ	.
.	16dd\LL	.
.	16b-\	.
.	16.gg^\	.
.	32ff\JJk	.
=13	=13	=13
4CC/ 4C	(8een'\L	.
.	16cc\L	.
.	16dd\JJ	.
!LO:TX:t=P:problem: kasownik dopisany ołówkiem	!	!
[4G\ [4B- [4c [4e-	16ee\LL	fp
.	16ff\	.
.	16gg\	.
.	16aa\JJ)	.
=14	=14	=14
4.G\] 4.B-] 4.c] 4.e-]	(16bb-\LL	.
.	16bbn\	.
.	16ccc\	.
.	16ccc#X\JJ	.
!	!LO:TX:t=P:problem: kasownik dopisany ołówkiem	!
.	16eee-\LL	.
.	16ddd\	.
8r	16bb\	.
.	16gg\JJ)	.
=15	=15	=15
4F\ 4A 4c	(16ff\LL	.
.	16aa\	.
.	16gg\	.
.	16ff\JJ	.
4G\ 4B- 4c	16een\LL	.
.	16gg\	.
.	16bb-\	.
.	16ee\JJ)	.
!!LO:LB:g=original	!	!
=16	=16	=16
2F\ 2A 2c	(16ff\LL	.
.	16gg\	.
.	16ee-\	.
.	16ff\JJ	.
.	16dd\LL	.
.	16ee-\	.
.	16cc\	.
.	16ff\JJ)	.
=17||	=17||	=17||
8BBB-/ 8BB-	8f\L	.
8F\L	8dd\	.
8B-\ 8d	8a\	.
8F\J	8b-\J	.
=18	=18	=18
8BB-/	4.f/	.
8F\L	.	.
8B-\ 8d	.	.
8F\J	16b-\LL	.
.	16dd\JJ	.
=19	=19	=19
!LO:TX:t=P:problem:mixed beam	!	!
8FF/L	8ff'\L	.
8F\J 8A 8e-	16ee-\L	.
.	16cc\JJ	.
8BB-\L	8ee-'\L	.
8F\J 8B- 8d	16dd\L	.
.	16b-\JJ	.
=20	=20	=20
.	(8qdd/	.
8FF/ 8F	16cc\LL)	.
!	!LO:TX:t=P:problem: kasownik dopisany ołówkiem	!
.	16b-\	.
8F\L	16cc\	.
.	16dd\JJ	.
8A\ 8e-	8cc'\L	.
8F\J	8ff'\J	.
=21	=21	=21
8BB-\ 8B-	8f\L	.
8F\L	8dd\	.
8B-\ 8d	8a\	.
8F\J	8b-\J	.
!!LO:LB:g=original	!	!
=22	=22	=22
4EE-/ 4E-	8g\	.
.	(>16bb-\LL	.
.	16ff#X\JJ	.
4E-^\ 4G 4c	16aa\LL	.
.	16gg\	.
.	16ee-\	.
.	16cc\JJ)	.
=23	=23	=23
4FF/	(16b-\LL	.
.	16a\	.
.	16g\	.
.	16f\JJ	.
4F^<\ 4c 4e-	16en\LL	.
.	16f\	.
.	16a\ 16dd	.
.	16cc\JJ)	.
=	=	=
8B-\L 8d	8b-'\L	.
8BB-\ 8F 8B-	8f'\ 8dd	.
8BB-\J 8F 8B-	8d'\J 8b-	.
=24||	=24||	=24||
8r	8dd\	.
=25	=25	=25
!	!	!LO:DY:b:t=f:color=grey
!	!LO:TX:t=P:problem: dynamika dopisana ołówkiem	!
8GG'/L 8G	8b-'\L 8gg	f
8DD'/ 8D	8cc'\ 8aa	.
8GGG'/J 8GG	8dd'\J 8bb-	.
8r	16.dd\LL	.
.	32dd\JJk	.
=26	=26	=26
8GG'/L 8G	8b-'\L 8gg	.
8DD'/ 8D	8cc'\ 8aa	.
8GGG'/J 8GG	8dd'\J 8bb-	.
8r	16.bb-\LL	.
.	32bb-\JJk	.
=27	=27	=27
.	8qbb-/	.
8DD/L 8D	16aa\LL	.
.	16gg#X\	.
8D/J	16aa\	.
.	16bb-\JJ	.
4F#X^\ 4c	8aa\L	.
.	8dd^^\J	.
!!LO:LB:g=original	!	!
=28	=28	=28
.	8qaa/	.
8GG\L 8G	16gg\LL	.
.	16ff#X\	.
8D\J	16gg\	.
.	16aa\JJ	.
4G^\ 4B-	8gg\L	.
.	8dd^^\J	.
=29	=29	=29
8GG\L 8G	8b-\L 8gg	.
8D\	8cc\ 8aa	.
8GG\J	8dd\ 8bb-	.
8GG^\ 8F	8dd^\J 8bbn	.
=30	=30	=30
8E-\L	8ee-\L 8ccc	.
8D\	8ff\ 8ddd	.
8C\J	8gg\ 8eee-	.
8FF#X^/	8aa^\J 8ccc 8eee-	.
=31	=31	=31
8GG/L	8bb-\L 8ddd	.
8C/	16ee-^\L 16ccc	.
.	16aa\JJ	.
8D/J	16dd\LL 16gg	.
.	16bb-\	.
8DD/	16cc^\ 16aa	.
.	16ff#X\JJ	.
=	=	=
8GG\L	8b-'\L 8gg	.
8GG\ 8G	8dd'\ 8bb-	.
8GG\J 8D 8G	8b-'\J 8gg	.
=32||	=32||	=32||
*	*Xtuplet	*
!	!LO:TX:b:i:t=D.C.al Fine.	!
8r	(24en/LL	.
.	24f/	.
.	24g/JJ)	.
==	==	==
*-	*-	*-
!!!system-decoration: {(s1,s2)}
!!!RDF**kern: > = above
!!!RDF**kern: < = below
!!!ENC: Solarz Mateusz
!!!END: 2022-09-22
!!!ENC: Natalia Wrzos
!!!END: 2022-11-01
!!!YEC: Copyright 2022 Narodowy Instytut Fryderyka Chopina (https://polishscores.org)
!!!YEM: License CC-BY-4.0 (https://creativecommons.org/licenses/by/4.0)
